brandFactory_export/3.Masa/Codigo_3Masa.svg

<?xml version="1.0" encoding="UTF-8"?>
<svg width="24px" height="24px" viewBox="0 0 24 24" version="1.1" xmlns="http://www.w3.org/2000/svg" xmlns:xlink="http://www.w3.org/1999/xlink">
    <title>3.Masa/Codigo_3Masa</title>
    <g id="Symbols" stroke="none" stroke-width="1" fill="none" fill-rule="evenodd">
        <g id="3.Masa/Codigo_3Masa" fill="#5CB615" fill-rule="nonzero">
            <path d="M21.9092437,19.3529412 C22.0571429,19.3529412 22.1781513,19.2352941 22.1781513,19.0941176 L22.1781513,7.49747899 L1.44537815,7.49747899 L1.44537815,19.0941176 C1.44537815,19.2352941 1.56638655,19.3529412 1.71428571,19.3529412 L21.9092437,19.3529412 Z M3.82521008,5.6789916 C3.81848739,5.31596639 3.51932773,5.02689076 3.15630252,5.03361345 C2.79327731,5.02689076 2.49411765,5.31260504 2.48403361,5.67563025 L2.48403361,5.6789916 C2.48403361,6.03529412 2.78319328,6.32436975 3.15294118,6.32436975 C3.51932773,6.33109244 3.81848739,6.04201681 3.82521008,5.6789916 Z M5.83865546,5.6789916 C5.83193277,5.31596639 5.53277311,5.02689076 5.1697479,5.03361345 L5.16638655,5.03361345 C4.80336134,5.02689076 4.50420168,5.31596639 4.49747899,5.6789916 C4.49747899,6.03529412 4.79663866,6.32436975 5.16638655,6.32436975 C5.53277311,6.33109244 5.83193277,6.04201681 5.83865546,5.6789916 Z M7.85210084,5.6789916 C7.84537815,5.31596639 7.54621849,5.02689076 7.18319328,5.03361345 L7.17983193,5.03361345 C6.81680672,5.02689076 6.51764706,5.31260504 6.50756303,5.67563025 L6.50756303,5.6789916 C6.50756303,6.03529412 6.80672269,6.32436975 7.17983193,6.32436975 C7.54621849,6.33109244 7.84537815,6.04201681 7.85210084,5.6789916 Z M21.9092437,3.02689076 C22.8537815,3.02689076 23.6235294,3.7697479 23.6235294,4.68067227 L23.6235294,19.0907563 C23.6235294,20.0016807 22.8537815,20.7445492 21.9092437,20.7445492 L1.71764706,20.7445492 C0.769747899,20.7478992 0,20.005042 0,19.0941176 L0,4.68067227 C0,3.7697479 0.769747899,3.02689076 1.71764706,3.02689076 L21.9092437,3.02689076 Z M8.35294118,11.0201681 C8.59495798,11.2756303 8.58487395,11.6756303 8.32941176,11.9176471 C8.32268908,11.9243697 8.31260504,11.9310924 8.30588235,11.9378151 L6.09747899,13.8672269 L8.3092437,15.8369748 C8.57142857,16.0689076 8.59831933,16.4689076 8.3697479,16.7310924 C8.36302521,16.7411765 8.35630252,16.7478992 8.34621849,16.7546218 C8.21512605,16.8890756 8.03697479,16.9630252 7.8487395,16.9630252 C7.68067227,16.9630252 7.51596639,16.902521 7.39159664,16.7882353 L4.63865546,14.3445378 C4.50084034,14.2235294 4.42352941,14.0487395 4.42352941,13.8638655 C4.42352941,13.6789916 4.50420168,13.5042017 4.64537815,13.3831933 L7.39831933,10.9764706 C7.67731092,10.7344538 8.09747899,10.7546218 8.35294118,11.0201681 L8.35294118,11.0201681 Z M16.1747899,10.9764706 L18.9277311,13.3831933 C19.0655462,13.5042017 19.1462185,13.6789916 19.1495798,13.8605042 C19.1495798,14.0453782 19.0689076,14.2201681 18.9310924,14.3411765 L16.1781513,16.7915966 C16.0504202,16.902521 15.8890756,16.9663866 15.7176471,16.9663866 C15.5327731,16.9663866 15.3512605,16.892437 15.2235294,16.7579832 C14.9781513,16.5058824 14.9848739,16.1058824 15.2336134,15.8605042 C15.2403361,15.8537815 15.2504202,15.8436975 15.2605042,15.8369748 L17.4722689,13.8672269 L15.2638655,11.9411765 C14.9983193,11.712605 14.9647059,11.312605 15.1932773,11.0470588 C15.2,11.0369748 15.210084,11.0302521 15.2168067,11.0201681 C15.4756303,10.7546218 15.892437,10.7344538 16.1747899,10.9764706 L16.1747899,10.9764706 Z M13.1764706,10.892437 C13.5159664,11.0403361 13.6705882,11.4235294 13.5159664,11.7529412 L11.2840336,16.5563025 C11.1697479,16.7915966 10.9310924,16.9428571 10.6689076,16.9395507 C10.5747899,16.9395507 10.4806723,16.9193277 10.3932773,16.8823529 C10.0537815,16.7344538 9.89915966,16.3512605 10.0537815,16.0252101 L12.2857143,11.2218487 C12.4470588,10.8890756 12.8403361,10.7445378 13.1764706,10.892437 Z" id="Codigo_3Masa"></path>
        </g>
    </g>
</svg>

<svg width="24" height="24" viewBox="0 0 24 24" xmlns="http://www.w3.org/2000/svg"><path d="M21.91 19.353a.266.266 0 00.268-.259V7.497H1.445v11.597c0 .141.121.259.27.259h20.194zM3.824 5.679a.657.657 0 00-.669-.645.66.66 0 00-.672.642v.003c0 .356.3.645.669.645a.658.658 0 00.672-.645zm2.014 0a.657.657 0 00-.67-.645h-.003a.657.657 0 00-.669.645c0 .356.3.645.67.645a.658.658 0 00.672-.645zm2.013 0a.657.657 0 00-.669-.645H7.18a.66.66 0 00-.672.642v.003c0 .356.299.645.672.645a.658.658 0 00.672-.645zM21.91 3.027c.945 0 1.715.743 1.715 1.654v14.41c0 .91-.77 1.654-1.715 1.654H1.718C.77 20.748 0 20.005 0 19.095V4.68c0-.911.77-1.654 1.718-1.654h20.191zM8.353 11.02a.633.633 0 01-.024.898l-.023.02-2.209 1.93 2.212 1.969a.637.637 0 01.037.918.691.691 0 01-.954.033l-2.753-2.443a.637.637 0 01.006-.962l2.753-2.407a.694.694 0 01.955.044zm7.822-.044l2.753 2.407a.654.654 0 01.222.478.64.64 0 01-.219.48l-2.753 2.45a.7.7 0 01-.46.175.684.684 0 01-.494-.208.636.636 0 01.037-.921l2.211-1.97-2.208-1.926a.634.634 0 01-.07-.894c.006-.01.016-.017.023-.027a.699.699 0 01.958-.044zm-2.999-.084a.64.64 0 01.34.86l-2.232 4.804a.676.676 0 01-.615.384.71.71 0 01-.276-.058.638.638 0 01-.34-.857l2.233-4.803a.684.684 0 01.89-.33z" fill="#5CB615" fill-rule="nonzero"/></svg>
